packages/ui-icons/src/Basic/32/O-platezh_32.svg

<svg xmlns="http://www.w3.org/2000/svg" viewBox="0 0 40 40"><path d="M20 22a5 5 0 0 0 0-10h-6v8h-2v2h2v2h-2v2h2v4h2v-4h6v-2h-6v-2Zm-4-8h4a3 3 0 0 1 0 6h-4Zm17.79 8.57A16 16 0 1 0 18 36a15.94 15.94 0 0 0 8-2.14 7 7 0 1 0 7.79-11.29ZM18 34a14.13 14.13 0 1 1 13.83-11.94 7 7 0 0 0-7 10.18A14 14 0 0 1 18 34Zm13 0a5 5 0 1 1 3.27-8.75L31 28.75l-1.27-1.41-1.49 1.34L30.35 31h1.28l3.86-4.14A4.94 4.94 0 0 1 36 29a5 5 0 0 1-5 5Z"/></svg>

<svg id="Ready" xmlns="http://www.w3.org/2000/svg" viewBox="0 0 40 40"><title>Megaicons_work_32_1.8_cp</title><path d="M20,22a5,5,0,0,0,0-10H14v8H12v2h2v2H12v2h2v4h2V26h6V24H16V22Zm-4-8h4a3,3,0,0,1,0,6H16Zm17.79,8.57A16,16,0,1,0,18,36a15.94,15.94,0,0,0,8-2.14,7,7,0,1,0,7.79-11.29ZM18,34A14.13,14.13,0,1,1,31.83,22.06a7,7,0,0,0-7,10.18A14,14,0,0,1,18,34Zm13,0a5,5,0,1,1,3.27-8.75L31,28.75l-1.27-1.41-1.49,1.34L30.35,31h1.28l3.86-4.14A4.94,4.94,0,0,1,36,29,5,5,0,0,1,31,34Z"/></svg>
